polaris-icons/icons/CollectionListIcon.svg

<svg xmlns="http://www.w3.org/2000/svg" viewBox="0 0 20 20"><path fill-rule="evenodd" d="M16 5.5C16.4142 5.5 16.75 5.83579 16.75 6.25V9.21447C16.75 10.0764 16.4076 10.9031 15.7981 11.5126L15.7803 11.5303C15.4874 11.8232 15.0126 11.8232 14.7197 11.5303C14.4268 11.2374 14.4268 10.7626 14.7197 10.4697L14.7374 10.4519C15.0656 10.1237 15.25 9.6786 15.25 9.21447V6.25C15.25 5.83579 15.5858 5.5 16 5.5Z"/>
<path fill-rule="evenodd" d="M6.76692 4.09835C7.47018 3.39509 8.42401 3 9.41857 3H11.5C13.0188 3 14.25 4.23122 14.25 5.75V8.03854C14.25 8.9005 13.9076 9.72714 13.2981 10.3366L9.09184 14.5429C8.11553 15.5192 6.53262 15.5192 5.55631 14.5429L2.88389 11.8705C1.80995 10.7965 1.80994 9.05532 2.88389 7.98138L6.76692 4.09835ZM9.41857 4.5C8.82183 4.5 8.24954 4.73705 7.82758 5.15901L3.94455 9.04204C3.45639 9.5302 3.45639 10.3217 3.94455 10.8098L6.61697 13.4822C7.00749 13.8728 7.64066 13.8728 8.03118 13.4822L12.2374 9.27598C12.5656 8.94779 12.75 8.50267 12.75 8.03854V5.75C12.75 5.05965 12.1904 4.5 11.5 4.5H9.41857Z"/>
<path d="M11.75 6.5C11.75 7.05228 11.3023 7.5 10.75 7.5C10.1977 7.5 9.75 7.05228 9.75 6.5C9.75 5.94772 10.1977 5.5 10.75 5.5C11.3023 5.5 11.75 5.94772 11.75 6.5Z"/>
<path d="M11.5 13.75C11.5 13.3358 11.8358 13 12.25 13H16.75C17.1642 13 17.5 13.3358 17.5 13.75C17.5 14.1642 17.1642 14.5 16.75 14.5H12.25C11.8358 14.5 11.5 14.1642 11.5 13.75Z"/>
<path d="M11.5 16.75C11.5 16.3358 11.8358 16 12.25 16H16.75C17.1642 16 17.5 16.3358 17.5 16.75C17.5 17.1642 17.1642 17.5 16.75 17.5H12.25C11.8358 17.5 11.5 17.1642 11.5 16.75Z"/></svg>

<svg xmlns="http://www.w3.org/2000/svg" viewBox="0 0 20 20"><path fill-rule="evenodd" d="M16 5.5c.414 0 .75.336.75.75v2.964c0 .862-.342 1.69-.952 2.299l-.018.017c-.293.293-.767.293-1.06 0-.293-.293-.293-.767 0-1.06l.017-.018c.329-.328.513-.773.513-1.238v-2.964c0-.414.336-.75.75-.75Z"/><path fill-rule="evenodd" d="M6.767 4.098c.703-.703 1.657-1.098 2.652-1.098h2.081c1.519 0 2.75 1.231 2.75 2.75v2.289c0 .861-.342 1.688-.952 2.298l-4.206 4.206c-.976.976-2.56.976-3.536 0l-2.672-2.672c-1.074-1.075-1.074-2.816 0-3.89l3.883-3.883Zm2.652.402c-.597 0-1.17.237-1.591.659l-3.883 3.883c-.489.488-.489 1.28 0 1.768l2.672 2.672c.39.39 1.024.39 1.414 0l4.206-4.206c.329-.328.513-.773.513-1.237v-2.289c0-.69-.56-1.25-1.25-1.25h-2.081Z"/><path d="M11.75 6.5c0 .552-.448 1-1 1s-1-.448-1-1 .448-1 1-1 1 .448 1 1Z"/><path d="M11.5 13.75c0-.414.336-.75.75-.75h4.5c.414 0 .75.336.75.75s-.336.75-.75.75h-4.5c-.414 0-.75-.336-.75-.75Z"/><path d="M11.5 16.75c0-.414.336-.75.75-.75h4.5c.414 0 .75.336.75.75s-.336.75-.75.75h-4.5c-.414 0-.75-.336-.75-.75Z"/></svg>
